X:217
T:Nellie Mahoney's Slide 
B:CRE2.070 (Slide NeilÃÂÃÂÃÂÃÂ­ NÃÂÃÂÃÂÃÂ­ MhathÃÂÃÂÃÂÃÂºna)
F:file ID: cre.2/217nellie_m
Q:180
L:1/8
M:6/8
R:slide
K:G
G2A|:B2A ABd|e2d d2B|AGA BdA|G2D D2A|
"5"B2A ABd|e2d d2B|AGA B2A|1 G2G G2A:|2 G3 G2||
D|"9"G2g gfg|age dBd|eaa aba|g3 b2g|
"13"G2g gfg|age d2B|eaa aba|g3 g2e|
"17"G2g gfg|age dBd|eaa aba|g3 B2A|
"21"G2g gfg|age d2B|eaa aba|g3 g3|]

%%%

